X: 38746
T: String Of Trucks
R: reel
M: 4/4
K: Edorian
|:B,2E2EFGE|FGFE DEFD|B,2E2EFGE|FEDB,- B,A,3|
B,2E2EFGE|FGFE DEFD|B,2E2EFGE|FED2 E2z2:|
B4B4|ABAG FED2|B,2E2EFGE|FED2 B,2A,2|
A4B4|ABAG FED2|B,2E2EFGE|FED2 E2z2|
B4B4|ABAG FED2|B,2E2EFGE|FEDB,-B,2A,2||
A4B4|ABAG FED2|B,2E2EFGE|FED2 E2z2||

